X:40
T:Loch Leven Castle
C:Joe Buchanan's Scottish Tome - Page 160.1
I:160 1
Z:Carl Allison
R:Hornpipe
L:1/8
M:4/4
K:C
(cB) | "Am"A2 (AB) "G"AGEG | "Am"AGAB "F"cBcd | "C"e^fga "Em" gede | "C"c2 G2 "Em"G2 (cB) |
"Am"A2 (AB) "G"AGEG | "Am"AGAB "F"cBcd | "C"afga "Em" gede | "Am"c2 A2 "Em"A2 :|
(eg) | "Am"a2 (ab) "G"ageg | "F"a^gab a2 "C"(=ge) | "G"dega "Em"gede | "C"c2 G2 G2 (eg) |
"Am"a2 (ab) ageg | "F"a^gab a2 "C"(=ge) | "G"dega "Em"gede | "Am"c2 A2 A2 (eg) |
"Am"a2 (ab) ageg | "D"a^gab a=ge^g | "G"g^fga "Em"gede | "C"c2 G2 G2 (cB) |
"Am"A2 (AB) "G"AGEG | "Am"AGAB "F"cBcd | "C"eaga "Em" gede | "F"c2 A2 "Am"A2 |]

